**kern	**kern	**dynam
*part1	*part1	*part1
*staff2	*staff1	*
*I"Piano	*	*
*clefF4	*clefG2	*
*k[b-e-a-]	*k[b-e-a-]	*
=1	=1	=1
4.FF	4.an 4.cc 4.ff	>
=	=	=
*^	*^	*
(4e-	[4.F	(4ccT	4f 4an	]
8d	.	8b-	8g	.
*	*	*v	*v	*
=	=	=	=
4.e-)	4.F]	4.f) 4.a- 4.cc	.
=	=	=	=
*	*	*^	*
(4e-	[4.F	(4ccT	4f 4an	.
8d	.	8b-	8g	.
*	*	*v	*v	*
=	=	=	=
4.e-)	4.F]	4.f) 4.an 4.cc	.
*v	*v	*	*
=	=	=
4F	4An 4c 4f	.
8E-	8B- 8e- 8g	.
=	=	=
4.AA-X	4.c 4.e- 4.a-X	.
=	=	=
8AA-L	8e-L 8a- 8cc	.
8FF	8f 8a- 8ddn	.
8GGJ	8dJ 8g 8bn	.
=	=	=
*-	*-	*-
!!!system-decoration: {(s1,s2)}
